;Project pcb - sound fft
;Created by Estlcam version 8 build 8.507
;Machining time about 12:19:56 AM hours

G90
M03 S24000
G00 X0.0000 Y0.0000 Z0.0000
G00 Z2.0000


;No. 1: Engraving 3
G00 X7.3500 Y6.6000
G00 Z0.5000
G01 Z-0.0300 F60 S24000
G01 Y9.6250 F120
G01 X7.7000
G01 X7.7500 Y9.7250
G01 X9.0250 Y11.0000
G01 X9.1250 Y11.0750
G01 X9.2500 Y11.1250
G01 X9.3250
G01 X9.3750 Y11.1500
G01 X11.9250
G01 X12.1750 Y11.0750
G01 X12.3500 Y10.9000
G01 X12.4250
G01 X12.8750 Y10.4500
G01 Y8.3000
G01 X12.4250 Y7.8500
G01 X11.8000
G01 X11.3500 Y8.3000
G01 Y10.1500
G01 X9.5750
G01 X8.8750 Y9.4250
G01 Y6.6000
G01 X7.3500
G00 Z2.0000


;No. 2: Engraving 2
G00 X3.8000 Y9.6250 Z2.0000
G00 Z0.5000
G01 Z-0.0300 F60
G01 Y6.7750 F120
G01 X4.6500 Y5.9250
G01 X4.7250 Y5.8250
G01 X4.7750 Y5.7000
G01 Y5.6250
G01 X4.8000 Y5.5750
G01 Y4.8000
G01 X10.6500
G01 X10.9000 Y4.7250
G01 X11.0750 Y4.5500
G01 X11.1250 Y4.4000
G01 X11.4000 Y4.1000
G01 Y1.9500
G01 X10.9750 Y1.5000
G01 X10.3250
G01 X9.9000 Y1.9500
G01 Y3.8000
G01 X4.3000
G01 X4.0500 Y3.8750
G01 X3.8750 Y4.0500
G01 X3.8000 Y4.3000
G01 Y5.3750
G01 X2.6750 Y6.4750
G01 X2.6250 Y6.6000
G01 X2.2750
G01 Y9.6250
G01 X3.8000
G00 Z2.0000


;No. 3: Engraving 1
G00 X3.8000 Y15.9750 Z2.0000
G00 Z0.5000
G01 Z-0.0300 F60
G01 Y12.9500 F120
G01 X2.2750
G01 Y15.9750
G01 X3.8000
G00 Z2.0000


;No. 4: Engraving 31
G00 X11.6000 Y23.1000 Z2.0000
G00 Z0.5000
G01 Z-0.0300 F60
G01 X11.1500 Y23.5500 F120
G01 Y25.7000
G01 X11.6000 Y26.1500
G01 X12.2250
G01 X12.6750 Y25.7000
G01 Y23.5500
G01 X12.2250 Y23.1000
G01 X11.6000
G00 Z2.0000


;No. 5: Engraving 30
G00 X14.1500 Y23.1000 Z2.0000
G00 Z0.5000
G01 Z-0.0300 F60
G01 X13.7000 Y23.5500 F120
G01 Y25.7000
G01 X14.1500 Y26.1500
G01 X14.7750
G01 X15.2250 Y25.7000
G01 Y23.5500
G01 X14.7750 Y23.1000
G01 X14.1500
G00 Z2.0000


;No. 6: Engraving 29
G00 X17.7500 Y23.5500 Z2.0000
G00 Z0.5000
G01 Z-0.0300 F60
G01 X17.3250 Y23.1000 F120
G01 X16.6750
G01 X16.2500 Y23.5500
G01 Y25.7000
G01 X16.6750 Y26.1500
G01 X17.3250
G01 X17.7500 Y25.7000
G01 Y23.5500
G00 Z2.0000


;No. 7: Engraving 28
G00 X20.3000 Y23.5500 Z2.0000
G00 Z0.5000
G01 Z-0.0300 F60
G01 X19.8500 Y23.1000 F120
G01 X19.2250
G01 X18.7750 Y23.5500
G01 Y25.7000
G01 X19.2250 Y26.1500
G01 X19.8500
G01 X20.3000 Y25.7000
G01 Y23.5500
G00 Z2.0000


;No. 8: Engraving 27
G00 X22.8500 Y23.5500 Z2.0000
G00 Z0.5000
G01 Z-0.0300 F60
G01 X22.4000 Y23.1000 F120
G01 X21.7750
G01 X21.3250 Y23.5500
G01 Y25.7000
G01 X21.7750 Y26.1500
G01 X22.4000
G01 X22.8500 Y25.7000
G01 Y23.5500
G00 Z2.0000


;No. 9: Engraving 26
G00 X24.3000 Y23.1000 Z2.0000
G00 Z0.5000
G01 Z-0.0300 F60
G01 X23.8500 Y23.5500 F120
G01 Y25.7000
G01 X24.3000 Y26.1500
G01 X24.9250
G01 X25.3750 Y25.7000
G01 Y23.5500
G01 X24.9250 Y23.1000
G01 X24.3000
G00 Z2.0000


;No. 10: Engraving 25
G00 X26.8500 Y23.1000 Z2.0000
G00 Z0.5000
G01 Z-0.0300 F60
G01 X26.4000 Y23.5500 F120
G01 Y25.7000
G01 X26.8500 Y26.1500
G01 X27.4750
G01 X27.9250 Y25.7000
G01 Y23.5500
G01 X27.4750 Y23.1000
G01 X26.8500
G00 Z2.0000


;No. 11: Engraving 24
G00 X30.4500 Y23.5500 Z2.0000
G00 Z0.5000
G01 Z-0.0300 F60
G01 X30.0250 Y23.1000 F120
G01 X29.3750
G01 X28.9500 Y23.5500
G01 Y25.7000
G01 X29.3750 Y26.1500
G01 X30.0250
G01 X30.4500 Y25.7000
G01 Y23.5500
G00 Z2.0000


;No. 12: Engraving 23
G00 X33.0000 Y23.5500 Z2.0000
G00 Z0.5000
G01 Z-0.0300 F60
G01 X32.5500 Y23.1000 F120
G01 X31.9250
G01 X31.4750 Y23.5500
G01 Y25.7000
G01 X31.9250 Y26.1500
G01 X32.5500
G01 X33.0000 Y25.7000
G01 Y23.5500
G00 Z2.0000


;No. 13: Engraving 22
G00 X35.1000 Y23.1000 Z2.0000
G00 Z0.5000
G01 Z-0.0300 F60
G01 X34.4750 F120
G01 X34.0250 Y23.5500
G01 Y25.7000
G01 X34.4750 Y26.1500
G01 X35.1000
G01 X35.5500 Y25.7000
G01 Y23.5500
G01 X35.1000 Y23.1000
G00 Z2.0000


;No. 14: Engraving 20
G00 X38.0750 Y25.7000 Z2.0000
G00 Z0.5000
G01 Z-0.0300 F60
G01 Y23.5500 F120
G01 X37.6250 Y23.1000
G01 X37.0000
G01 X36.5500 Y23.5500
G01 Y25.7000
G01 X37.0000 Y26.1500
G01 X37.6250
G01 X38.0750 Y25.7000
G00 Z2.0000


;No. 15: Engraving 21
G00 X39.1000 Y23.5500 Z2.0000
G00 Z0.5000
G01 Z-0.0300 F60
G01 Y25.7000 F120
G01 X39.3500 Y25.9500
G01 Y26.9500
G01 X26.9500 Y39.3500
G01 X19.5500
G01 X19.4750 Y39.3750
G01 X19.4000
G01 X19.3000 Y39.4250
G01 X19.2500 Y39.4750
G01 X19.1750 Y39.5000
G01 X17.8250 Y40.8750
G01 Y40.9500
G01 X17.8000 Y41.0000
G01 Y41.0750
G01 X17.7750 Y41.1250
G01 Y52.5500
G02 X18.2750 Y53.0500 I0.4625 J0.0375
G01 X24.6250
G01 X24.8750 Y53.0000
G01 X25.0500 Y52.8000
G01 X25.1250 Y52.5500
G01 Y48.8250
G01 X25.3750 Y48.5500
G01 Y46.4000
G01 X24.9250 Y45.9500
G01 X24.3000
G01 X23.8500 Y46.4000
G01 Y48.5500
G01 X24.1250 Y48.8250
G01 Y52.0500
G01 X18.7750
G01 Y41.3250
G01 X19.7500 Y40.3500
G01 X27.3000
G01 X27.3500 Y40.3000
G01 X27.4000
G01 X27.4500 Y40.2500
G01 X27.5250 Y40.2250
G01 X40.2250 Y27.5250
G01 X40.2500 Y27.4500
G01 X40.3000 Y27.4000
G01 Y27.3500
G01 X40.3500 Y27.3000
G01 Y25.9500
G01 X40.6250 Y25.7000
G01 Y23.5500
G01 X40.1750 Y23.1000
G01 X39.5500
G01 X39.1000 Y23.5500
G00 Z2.0000


;No. 16: Engraving 19
G00 X43.1500 Y25.7000 Z2.0000
G00 Z0.5000
G01 Z-0.0300 F60
G01 Y23.5500 F120
G01 X42.7250 Y23.1000
G01 X42.0750
G01 X41.6500 Y23.5500
G01 Y25.7000
G01 X41.9000 Y25.9500
G01 Y26.9500
G01 X26.9500 Y41.9000
G01 X22.0750
G01 X21.8250 Y41.9750
G01 X21.6500 Y42.1500
G01 X21.5750 Y42.4000
G01 Y46.1500
G01 X21.3250 Y46.4000
G01 Y48.5500
G01 X21.7750 Y49.0000
G01 X22.4000
G01 X22.8500 Y48.5500
G01 Y46.4000
G01 X22.5750 Y46.1500
G01 Y42.9000
G01 X27.1500
G01 X27.2250 Y42.8750
G01 X27.3000
G01 X27.4000 Y42.8250
G01 X27.4500 Y42.7750
G01 X27.5250 Y42.7500
G01 X42.7500 Y27.5250
G01 X42.7750 Y27.4500
G01 X42.8250 Y27.4000
G01 X42.8750 Y27.3000
G01 Y27.2250
G01 X42.9000 Y27.1500
G01 Y25.9500
G01 X43.1500 Y25.7000
G00 Z2.0000


;No. 17: Engraving 18
G00 X44.6000 Y23.1000 Z2.0000
G00 Z0.5000
G01 Z-0.0300 F60
G01 X44.1500 Y23.5500 F120
G01 Y25.7000
G01 X44.4500 Y25.9750
G01 Y28.2250
G01 X29.3500 Y43.3250
G01 X29.3250 Y43.3750
G01 X29.2750 Y43.4250
G01 X29.2250 Y43.5500
G01 X29.2000 Y43.6750
G01 Y46.1500
G01 X28.9500 Y46.4000
G01 Y48.5500
G01 X29.3750 Y49.0000
G01 X30.0250
G01 X30.4500 Y48.5500
G01 Y46.4000
G01 X30.2000 Y46.1500
G01 Y43.8750
G01 X45.3000 Y28.7750
G01 X45.3250 Y28.7250
G01 X45.3750 Y28.6750
G01 X45.4250 Y28.5500
G01 X45.4500 Y28.4250
G01 Y25.9250
G01 X45.6750 Y25.7000
G01 Y23.5500
G01 X45.2250 Y23.1000
G01 X44.6000
G00 Z2.0000


;No. 18: Engraving 17
G00 X48.2250 Y23.5500 Z2.0000
G00 Z0.5000
G01 Z-0.0300 F60
G01 X47.7750 Y23.1000 F120
G01 X47.1500
G01 X46.7000 Y23.5500
G01 Y25.7000
G01 X47.1500 Y26.1500
G01 X47.7750
G01 X48.2250 Y25.7000
G01 Y23.5500
G00 Z2.0000


;No. 19: Engraving 16
G00 X45.8750 Y10.4500 Z2.0000
G00 Z0.5000
G01 Z-0.0300 F60
G01 Y8.3000 F120
G01 X45.4250 Y7.8500
G01 X44.8000
G01 X44.3500 Y8.3000
G01 Y10.4500
G01 X44.8000 Y10.9000
G01 X45.4250
G01 X45.8750 Y10.4500
G00 Z2.0000


;No. 20: Engraving 15
G00 X42.2750 Y7.8500 Z2.0000
G00 Z0.5000
G01 Z-0.0300 F60
G01 X41.8500 Y8.3000 F120
G01 Y10.4500
G01 X42.2750 Y10.9000
G01 X42.9250
G01 X43.3500 Y10.4500
G01 Y8.3000
G01 X42.9250 Y7.8500
G01 X42.2750
G00 Z2.0000


;No. 21: Engraving 14
G00 X39.3500 Y6.8500 Z2.0000
G00 Z0.5000
G01 Z-0.0300 F60
G01 Y8.1000 F120
G01 X39.3750 Y8.2000
G01 X39.3000 Y8.3000
G01 Y10.4500
G01 X39.7500 Y10.9000
G01 X40.3750
G01 X40.8250 Y10.4500
G01 Y8.3000
G01 X40.3750 Y7.8500
G01 X40.3500
G01 Y7.0500
G01 X41.3250 Y6.0750
G01 X51.0750
G01 X52.0500 Y7.0500
G01 Y17.0000
G01 X52.0750 Y17.1250
G01 X52.1250 Y17.2500
G01 X52.1750 Y17.3000
G01 X52.2000 Y17.3500
G01 X54.6000 Y19.7500
G01 Y30.9750
G01 X54.6750 Y31.2250
G01 X54.8500 Y31.4000
G01 X55.1000 Y31.4750
G01 X64.7500
G01 Y33.1000
G01 X64.3500 Y33.5000
G01 Y36.0500
G01 X64.8750 Y36.5750
G01 X65.6250
G01 X66.1500 Y36.0500
G01 Y33.5000
G01 X65.7500 Y33.1000
G01 Y30.9750
G01 X65.7000 Y30.7250
G01 X65.5000 Y30.5250
G01 X65.2500 Y30.4750
G01 X55.6000
G01 Y19.5500
G01 X55.5750 Y19.4750
G01 Y19.4000
G01 X55.5250 Y19.3000
G01 X55.4750 Y19.2500
G01 X55.4500 Y19.1750
G01 X53.0500 Y16.8000
G01 Y6.7000
G01 X53.0000 Y6.6500
G01 Y6.6000
G01 X52.9500 Y6.5500
G01 X52.9250 Y6.4750
G01 X51.5500 Y5.1250
G01 X51.3500 Y5.1000
G01 X51.3000 Y5.0750
G01 X41.1250
G01 X41.0750 Y5.1000
G01 X40.8750 Y5.1250
G01 X39.5000 Y6.4750
G01 X39.4750 Y6.5500
G01 X39.4250 Y6.6000
G01 X39.3750 Y6.7000
G01 Y6.7750
G01 X39.3500 Y6.8500
G00 Z2.0000


;No. 22: Engraving 13
G00 X37.2000 Y7.8500 Z2.0000
G00 Z0.5000
G01 Z-0.0300 F60
G01 X36.7500 Y8.3000 F120
G01 Y10.4500
G01 X37.2000 Y10.9000
G01 X37.8250
G01 X38.2750 Y10.4500
G01 Y8.3000
G01 X37.8250 Y7.8500
G01 X37.2000
G00 Z2.0000


;No. 23: Engraving 12
G00 X34.2250 Y8.3000 Z2.0000
G00 Z0.5000
G01 Z-0.0300 F60
G01 Y10.4500 F120
G01 X34.6750 Y10.9000
G01 X35.3000
G01 X35.7500 Y10.4500
G01 Y8.3000
G01 X35.3000 Y7.8500
G01 X34.6750
G01 X34.2250 Y8.3000
G00 Z2.0000


;No. 24: Engraving 11
G00 X32.7500 Y7.8500 Z2.0000
G00 Z0.5000
G01 Z-0.0300 F60
G01 X32.1250 F120
G01 X31.6750 Y8.3000
G01 Y10.4500
G01 X32.1250 Y10.9000
G01 X32.7500
G01 X33.2000 Y10.4500
G01 Y8.3000
G01 X32.7500 Y7.8500
G00 Z2.0000


;No. 25: Engraving 10
G00 X29.5750 Y7.8500 Z2.0000
G00 Z0.5000
G01 Z-0.0300 F60
G01 X29.1500 Y8.3000 F120
G01 Y10.4500
G01 X29.5750 Y10.9000
G01 X30.2250
G01 X30.6500 Y10.4500
G01 Y8.3000
G01 X30.2250 Y7.8500
G01 X29.5750
G00 Z2.0000


;No. 26: Engraving 9
G00 X27.6750 Y7.8500 Z2.0000
G00 Z0.5000
G01 Z-0.0300 F60
G01 X27.0500 F120
G01 X26.6000 Y8.3000
G01 Y10.4500
G01 X27.0500 Y10.9000
G01 X27.6750
G01 X28.1250 Y10.4500
G01 Y8.3000
G01 X27.6750 Y7.8500
G00 Z2.0000


;No. 27: Engraving 8
G00 X24.0500 Y8.3000 Z2.0000
G00 Z0.5000
G01 Z-0.0300 F60
G01 Y10.4500 F120
G01 X24.5000 Y10.9000
G01 X25.1250
G01 X25.5750 Y10.4500
G01 Y8.3000
G01 X25.1250 Y7.8500
G01 X24.5000
G01 X24.0500 Y8.3000
G00 Z2.0000


;No. 28: Engraving 7
G00 X21.5250 Y8.3000 Z2.0000
G00 Z0.5000
G01 Z-0.0300 F60
G01 Y10.4500 F120
G01 X21.9750 Y10.9000
G01 X22.6000
G01 X23.0500 Y10.4500
G01 Y8.3000
G01 X22.6000 Y7.8500
G01 X21.9750
G01 X21.5250 Y8.3000
G00 Z2.0000


;No. 29: Engraving 6
G00 X20.5000 Y10.4500 Z2.0000
G00 Z0.5000
G01 Z-0.0300 F60
G01 Y8.3000 F120
G01 X20.0500 Y7.8500
G01 X19.4250
G01 X18.9750 Y8.3000
G01 Y10.4500
G01 X19.0750 Y10.5250
G01 X19.0500 Y10.6500
G01 Y15.5250
G01 X18.0750 Y16.5000
G01 X11.9250
G01 X11.8000 Y16.5250
G01 X11.6750 Y16.5750
G01 X11.5750 Y16.6500
G01 X9.0250 Y19.1750
G01 X9.0000 Y19.2500
G01 X8.9500 Y19.3000
G01 X8.9000 Y19.4000
G01 Y19.4750
G01 X8.8750 Y19.5500
G01 Y34.7750
G01 X8.9250 Y34.9750
G01 X9.0250 Y35.1250
G01 X13.9500 Y40.0750
G01 Y53.8250
G01 X14.0000 Y54.0250
G01 X14.1000 Y54.1750
G01 X15.3750 Y55.4500
G01 X15.4250 Y55.4750
G01 X15.4750 Y55.5250
G01 X15.6000 Y55.5750
G01 X15.6750
G01 X15.7250 Y55.6000
G01 X29.7000
G01 X29.8250 Y55.5750
G01 X29.9500 Y55.5250
G01 X30.0000 Y55.4750
G01 X30.0500 Y55.4500
G01 X31.1750 Y54.3250
G01 X32.2500
G01 X32.5000 Y54.2750
G01 X32.6750 Y54.0750
G01 X32.7500 Y53.8250
G01 Y48.8250
G01 X33.0000 Y48.5500
G01 Y46.4000
G01 X32.7500 Y46.1500
G01 Y45.1500
G01 X48.9500 Y28.9250
G01 X50.0250
G01 X50.0750 Y28.9000
G01 X50.2750 Y28.8750
G01 X51.6500 Y27.5250
G01 X51.6750 Y27.4500
G01 X51.7250 Y27.4000
G01 X51.7750 Y27.3000
G01 Y27.2250
G01 X51.8000 Y27.1500
G01 Y19.5500
G01 X51.7750 Y19.4750
G01 Y19.4000
G01 X51.7250 Y19.3000
G01 X51.6750 Y19.2500
G01 X51.6500 Y19.1750
G01 X47.9750 Y15.5250
G01 Y10.8750
G01 X48.4250 Y10.4500
G01 Y8.3000
G01 X47.9750 Y7.8500
G01 X47.3500
G01 X46.9000 Y8.3000
G01 Y10.4500
G01 X47.0000 Y10.5500
G01 X46.9750 Y10.6500
G01 Y15.7250
G01 X47.0250 Y15.9250
G01 X47.1250 Y16.0750
G01 X50.8000 Y19.7500
G01 Y26.9500
G01 X49.8250 Y27.9250
G01 X48.7500
G01 X48.6250 Y27.9500
G01 X48.5000 Y28.0000
G01 X48.4500 Y28.0500
G01 X48.4000 Y28.0750
G01 X31.8750 Y44.5750
G01 X31.8500 Y44.6500
G01 X31.8000 Y44.7000
G01 Y44.7500
G01 X31.7500 Y44.8000
G01 Y46.1500
G01 X31.4750 Y46.4000
G01 Y48.5500
G01 X31.7500 Y48.8250
G01 Y53.3250
G01 X30.9750
G01 X30.8500 Y53.3500
G01 X30.7250 Y53.4000
G01 X30.6750 Y53.4500
G01 X30.6250 Y53.4750
G01 X29.5000 Y54.6000
G01 X15.9250
G01 X14.9500 Y53.6250
G01 Y39.7250
G01 X14.9000 Y39.6750
G01 Y39.6000
G01 X14.8250 Y39.5000
G01 X9.8750 Y34.5750
G01 Y19.7500
G01 X12.1250 Y17.5000
G01 X18.2750
G01 X18.3250 Y17.4750
G01 X18.4000
G01 X18.5250 Y17.4250
G01 X18.5750 Y17.3750
G01 X18.6250 Y17.3500
G01 X19.9000 Y16.0750
G01 X19.9250 Y16.0250
G01 X19.9750 Y15.9750
G01 X20.0250 Y15.8500
G01 X20.0500 Y15.7250
G01 Y10.9000
G01 X20.5000 Y10.4500
G00 Z2.0000


;No. 30: Engraving 5
G00 X17.5250 Y7.8500 Z2.0000
G00 Z0.5000
G01 Z-0.0300 F60
G01 X16.8750 F120
G01 X16.4500 Y8.3000
G01 Y10.4500
G01 X16.8750 Y10.9000
G01 X17.5250
G01 X17.9500 Y10.4500
G01 Y8.3000
G01 X17.5250 Y7.8500
G00 Z2.0000


;No. 31: Engraving 4
G00 X13.9500 Y5.7750 Z2.0000
G00 Z0.5000
G01 Z-0.0300 F60
G01 Y8.1000 F120
G01 X13.9750 Y8.2000
G01 X13.9000 Y8.3000
G01 Y10.4500
G01 X14.0000 Y10.5250
G01 X13.9500 Y10.6500
G01 Y12.9750
G01 X12.9750 Y13.9500
G01 X10.6500
G01 X10.5250 Y13.9750
G01 X10.4000 Y14.0250
G01 X10.3000 Y14.1000
G01 X6.4750 Y17.9250
G01 X6.4500 Y17.9750
G01 X6.4000 Y18.0250
G01 Y18.0750
G01 X6.3500 Y18.1500
G01 Y36.1750
G01 X6.4000 Y36.2250
G01 Y36.3000
G01 X6.4500 Y36.3500
G01 X6.4750 Y36.4000
G01 X11.4250 Y41.3250
G01 Y53.8250
G01 X11.4750 Y54.0750
G01 X15.3750 Y58.0000
G01 X15.4750 Y58.0750
G01 X15.6000 Y58.1250
G01 X15.6750
G01 X15.7250 Y58.1500
G01 X29.2000
G01 Y62.6500
G01 X28.9500 Y62.9250
G01 Y65.0750
G01 X29.3750 Y65.5000
G01 X30.0250
G01 X30.4500 Y65.0750
G01 Y62.9250
G01 X30.2000 Y62.6500
G01 Y58.1500
G01 X32.2500
G01 X32.3000 Y58.1250
G01 X32.3750
G01 X32.5000 Y58.0750
G01 X32.6000 Y58.0000
G01 X36.2500 Y54.3250
G01 X37.3250
G01 X37.5750 Y54.2750
G01 X37.7500 Y54.0750
G01 X37.8250 Y53.8250
G01 Y48.8250
G01 X38.0750 Y48.5500
G01 Y46.7000
G01 X43.1750
G01 Y48.3500
G01 X42.7750 Y48.7500
G01 Y51.3000
G01 X43.3000 Y51.8250
G01 X44.0500
G01 X44.5750 Y51.3000
G01 Y48.7500
G01 X44.1750 Y48.3500
G01 Y46.2000
G02 X43.6750 Y45.7000 I-0.5196 J0.0196
G01 X37.3250
G01 X37.0750 Y45.7750
G01 X36.8750 Y45.9500
G01 X36.8500 Y46.1250
G01 X36.5500 Y46.4000
G01 Y48.5500
G01 X36.8250 Y48.8250
G01 Y53.3250
G01 X36.0500
G01 X35.9250 Y53.3500
G01 X35.8000 Y53.4000
G01 X35.7500 Y53.4500
G01 X35.7000 Y53.4750
G01 X32.0250 Y57.1500
G01 X15.9250
G01 X12.4250 Y53.6250
G01 Y41.1250
G01 X12.4000 Y41.0750
G01 Y41.0000
G01 X12.3500 Y40.8750
G01 X12.3000 Y40.8250
G01 X12.2750 Y40.7750
G01 X7.3500 Y35.8500
G01 Y18.4750
G01 X10.8500 Y14.9500
G01 X13.3250
G01 X13.3750 Y14.9000
G01 X13.4500
G01 X13.5000 Y14.8500
G01 X13.5500 Y14.8250
G01 X14.8250 Y13.5500
G01 X14.8500 Y13.5000
G01 X14.9000 Y13.4500
G01 Y13.3750
G01 X14.9500 Y13.3250
G01 Y10.9000
G01 X14.9750
G01 X15.4250 Y10.4500
G01 Y8.3000
G01 X14.9750 Y7.8500
G01 X14.9500
G01 Y5.4500
G01 X14.9000 Y5.3750
G01 Y5.3250
G01 X14.8250 Y5.2250
G01 X13.8250 Y4.2250
G01 X13.9500 Y4.1000
G01 Y1.9500
G01 X13.5000 Y1.5000
G01 X12.8750
G01 X12.4250 Y1.9500
G01 Y4.1000
G01 X12.7000 Y4.3750
G01 Y4.4250
G01 X12.8250 Y4.6500
G01 X13.9500 Y5.7750
G00 Z2.0000


;No. 32: Engraving 32
G00 X26.8500 Y45.9500 Z2.0000
G00 Z0.5000
G01 Z-0.0300 F60
G01 X26.4000 Y46.4000 F120
G01 Y48.5500
G01 X26.8500 Y49.0000
G01 X27.4750
G01 X27.9250 Y48.5500
G01 Y46.4000
G01 X27.4750 Y45.9500
G01 X26.8500
G00 Z2.0000


;No. 33: Engraving 33
G00 X34.0250 Y46.4000 Z2.0000
G00 Z0.5000
G01 Z-0.0300 F60
G01 Y48.5500 F120
G01 X34.4750 Y49.0000
G01 X35.1000
G01 X35.5500 Y48.5500
G01 Y46.4000
G01 X35.2750 Y46.1500
G01 Y45.1500
G01 X38.8000 Y41.6250
G01 X62.2250
G01 Y49.8250
G01 X61.2500 Y50.8000
G01 X58.7750
G01 X58.7250 Y50.8500
G01 X58.6500
G01 X58.6000 Y50.9000
G01 X58.5500 Y50.9250
G01 X56.4000 Y53.1000
G01 X55.9500
G01 X55.3750 Y53.6750
G01 Y55.8750
G01 X53.8250
G01 X53.7750 Y55.9000
G01 X53.5750 Y55.9250
G01 X51.0750 Y58.4000
G01 X48.7500
G01 X48.6250 Y58.4250
G01 X48.5000 Y58.4750
G01 X48.4500 Y58.5250
G01 X48.4000 Y58.5500
G01 X47.5000 Y59.4500
G01 X47.0750
G01 X46.4750 Y60.0250
G01 Y62.8750
G01 X47.0750 Y63.4500
G01 X47.9000
G01 X48.4750 Y62.8750
G01 Y60.0250
G01 X48.4000 Y59.9500
G01 X48.9500 Y59.4000
G01 X51.4250
G01 X51.4750 Y59.3500
G01 X51.5500
G01 X51.6000 Y59.3000
G01 X51.6500 Y59.2750
G01 X54.0250 Y56.8750
G01 X55.7250
G01 X55.9500 Y57.1000
G01 X56.7750
G01 X57.3750 Y56.5250
G01 Y53.6750
G01 X57.3000 Y53.6000
G01 X59.1250 Y51.8000
G01 X61.4500
G01 X61.5750 Y51.7750
G01 X61.7000 Y51.7250
G01 X61.7500 Y51.6750
G01 X61.8000 Y51.6500
G01 X63.0750 Y50.3750
G01 X63.1500 Y50.2750
G01 X63.2000 Y50.1500
G01 Y50.0750
G01 X63.2250 Y50.0250
G01 Y41.1250
G01 X63.1500 Y40.8750
G01 X62.9750 Y40.7000
G01 X62.7250 Y40.6250
G01 X38.6000
G01 X38.5250 Y40.6500
G01 X38.4500
G01 X38.3500 Y40.7000
G01 X38.3000 Y40.7500
G01 X38.2250 Y40.7750
G01 X34.4250 Y44.5750
G01 X34.4000 Y44.6500
G01 X34.3500 Y44.7000
G01 X34.3000 Y44.8000
G01 Y44.8750
G01 X34.2750 Y44.9500
G01 Y46.1500
G01 X34.0250 Y46.4000
G00 Z2.0000


;No. 34: Engraving 34
G00 X39.4500 Y59.4500 Z2.0000
G00 Z0.5000
G01 Z-0.0300 F60
G01 X38.8500 Y60.0250 F120
G01 Y62.8750
G01 X39.3500 Y63.3750
G01 Y65.3250
G01 X38.9500 Y64.9000
G01 X38.9000 Y64.8750
G01 X38.8500 Y64.8250
G01 X38.7250 Y64.7750
G01 X38.6500
G01 X38.6000 Y64.7500
G01 X33.0000
G01 Y62.9250
G01 X32.5500 Y62.4750
G01 X31.9250
G01 X31.4750 Y62.9250
G01 Y65.0750
G01 X31.7750 Y65.3500
G01 X31.8000 Y65.5000
G01 X32.0000 Y65.7000
G01 X32.2500 Y65.7500
G01 X38.3750
G01 X39.0500 Y66.4250
G01 X38.9500 Y66.5250
G01 Y69.0750
G01 X39.4750 Y69.6000
G01 X40.2250
G01 X40.7500 Y69.0750
G01 Y66.5250
G01 X40.3500 Y66.1250
G01 Y63.3750
G01 X40.8500 Y62.8750
G01 Y60.0250
G01 X40.2750 Y59.4500
G01 X39.4500
G00 Z2.0000


;No. 35: Engraving 35
G00 X45.7000 Y54.9000 Z2.0000
G00 Z0.5000
G01 Z-0.0300 F60
G01 X43.3250 Y57.2750 F120
G01 X43.2250 Y57.4000
G01 Y57.4500
G01 X43.2000 Y57.5000
G01 Y57.5750
G01 X43.1750 Y57.6500
G01 Y63.7750
G01 X42.0500 Y64.9000
G01 X42.0250 Y64.9500
G01 X41.9750 Y65.0000
G01 X41.9250 Y65.1250
G01 Y65.2000
G01 X41.9000 Y65.2500
G01 Y66.1250
G01 X41.5000 Y66.5250
G01 Y69.0750
G01 X42.0250 Y69.6000
G01 X42.7750
G01 X43.3000 Y69.0750
G01 Y66.5250
G01 X42.9000 Y66.1250
G01 Y65.4750
G01 X44.0250 Y64.3500
G01 X44.1000 Y64.2500
G01 X44.1500 Y64.1250
G01 Y64.0500
G01 X44.1750 Y64.0000
G01 Y57.8500
G01 X46.5750 Y55.4500
G01 X46.6500 Y55.3500
G01 Y55.2750
G01 X46.7000 Y55.2250
G01 Y51.4500
G01 X46.8750 Y51.3000
G01 Y48.7500
G01 X46.7000 Y48.5750
G01 Y46.4250
G01 X47.6750 Y45.4500
G01 X47.7500
G01 Y46.3500
G01 X48.3250 Y46.9500
G01 X49.1750
G01 X49.7500 Y46.3500
G01 Y43.5250
G01 X49.1750 Y42.9500
G01 X48.3250
G01 X47.7500 Y43.5250
G01 Y44.4500
G01 X47.3500
G01 X47.3000 Y44.5000
G01 X47.2250
G01 X47.1750 Y44.5500
G01 X47.1250 Y44.5750
G01 X45.8500 Y45.8500
G01 X45.8250 Y45.9000
G01 X45.7750 Y45.9500
G01 X45.7250 Y46.0750
G01 Y46.1500
G01 X45.7000 Y46.2000
G01 Y48.2250
G01 X45.6000
G01 X45.0750 Y48.7500
G01 Y51.3000
G01 X45.6000 Y51.8250
G01 X45.7000
G01 Y54.9000
G00 Z2.0000


;No. 36: Engraving 36
G00 X47.7500 Y53.6750 Z2.0000
G00 Z0.5000
G01 Z-0.0300 F60
G01 Y56.5250 F120
G01 X48.3250 Y57.1000
G01 X49.1750
G01 X49.7500 Y56.5250
G01 Y53.6750
G01 X49.2500 Y53.1750
G01 Y51.3000
G01 X49.1750 Y51.0500
G01 Y49.2500
G01 X55.1000
G01 X55.2250 Y49.2250
G01 X55.3500 Y49.1750
G01 X55.4500 Y49.1000
G01 X56.7250 Y47.8250
G01 X56.7500 Y47.7750
G01 X56.8000 Y47.7250
G02 X56.8750 Y46.8500 I-1.7304 J-0.5890
G01 X57.0250 Y46.7000
G01 X58.2750
G01 X58.5000 Y46.9500
G01 X59.3250
G01 X59.9000 Y46.3500
G01 Y43.5250
G01 X59.3250 Y42.9500
G01 X58.5000
G01 X57.9000 Y43.5250
G01 Y45.7000
G01 X57.3750
G01 Y43.5250
G01 X56.7750 Y42.9500
G01 X55.9500
G01 X55.3750 Y43.5250
G01 Y46.3500
G01 X55.8750 Y46.8500
G01 Y47.2750
G01 X54.9000 Y48.2500
G01 X48.7500
G01 X48.7000 Y48.2750
G01 X48.6500 Y48.2250
G01 X47.9000
G01 X47.3750 Y48.7500
G01 Y51.3000
G01 X47.9000 Y51.8250
G01 X48.2500
G01 Y53.1750
G01 X47.7500 Y53.6750
G00 Z2.0000


;No. 37: Engraving 37
G00 X66.0250 Y39.1000 Z2.0000
G00 Z0.5000
G01 Z-0.1000 F60
G01 Y43.0250 F120
G01 X65.5250 Y43.5250
G01 Y46.3500
G01 X66.1250 Y46.9500
G01 X66.9500
G01 X67.5250 Y46.3500
G01 Y43.5250
G01 X67.0250 Y43.0250
G01 Y38.6000
G01 X66.9750 Y38.3500
G01 X66.7750 Y38.1500
G01 X66.5250 Y38.1000
G01 X63.2250
G01 Y36.4500
G01 X63.6250 Y36.0500
G01 Y33.5000
G01 X63.1000 Y32.9750
G01 X62.3500
G01 X61.8250 Y33.5000
G01 Y36.0500
G01 X62.2250 Y36.4500
G01 Y38.6000
G01 X62.2750 Y38.8500
G01 X62.4750 Y39.0250
G01 X62.7250 Y39.1000
G01 X66.0250
G01 Z-0.2000 F60
G01 Y43.0250 F120
G01 X65.5250 Y43.5250
G01 Y46.3500
G01 X66.1250 Y46.9500
G01 X66.9500
G01 X67.5250 Y46.3500
G01 Y43.5250
G01 X67.0250 Y43.0250
G01 Y38.6000
G01 X66.9750 Y38.3500
G01 X66.7750 Y38.1500
G01 X66.5250 Y38.1000
G01 X63.2250
G01 Y36.4500
G01 X63.6250 Y36.0500
G01 Y33.5000
G01 X63.1000 Y32.9750
G01 X62.3500
G01 X61.8250 Y33.5000
G01 Y36.0500
G01 X62.2250 Y36.4500
G01 Y38.6000
G01 X62.2750 Y38.8500
G01 X62.4750 Y39.0250
G01 X62.7250 Y39.1000
G01 X66.0250
G01 Z-0.3000 F60
G01 Y43.0250 F120
G01 X65.5250 Y43.5250
G01 Y46.3500
G01 X66.1250 Y46.9500
G01 X66.9500
G01 X67.5250 Y46.3500
G01 Y43.5250
G01 X67.0250 Y43.0250
G01 Y38.6000
G01 X66.9750 Y38.3500
G01 X66.7750 Y38.1500
G01 X66.5250 Y38.1000
G01 X63.2250
G01 Y36.4500
G01 X63.6250 Y36.0500
G01 Y33.5000
G01 X63.1000 Y32.9750
G01 X62.3500
G01 X61.8250 Y33.5000
G01 Y36.0500
G01 X62.2250 Y36.4500
G01 Y38.6000
G01 X62.2750 Y38.8500
G01 X62.4750 Y39.0250
G01 X62.7250 Y39.1000
G01 X66.0250
G01 Z-0.4000 F60
G01 Y43.0250 F120
G01 X65.5250 Y43.5250
G01 Y46.3500
G01 X66.1250 Y46.9500
G01 X66.9500
G01 X67.5250 Y46.3500
G01 Y43.5250
G01 X67.0250 Y43.0250
G01 Y38.6000
G01 X66.9750 Y38.3500
G01 X66.7750 Y38.1500
G01 X66.5250 Y38.1000
G01 X63.2250
G01 Y36.4500
G01 X63.6250 Y36.0500
G01 Y33.5000
G01 X63.1000 Y32.9750
G01 X62.3500
G01 X61.8250 Y33.5000
G01 Y36.0500
G01 X62.2250 Y36.4500
G01 Y38.6000
G01 X62.2750 Y38.8500
G01 X62.4750 Y39.0250
G01 X62.7250 Y39.1000
G01 X66.0250
G01 Z-0.5000 F60
G01 Y43.0250 F120
G01 X65.5250 Y43.5250
G01 Y46.3500
G01 X66.1250 Y46.9500
G01 X66.9500
G01 X67.5250 Y46.3500
G01 Y43.5250
G01 X67.0250 Y43.0250
G01 Y38.6000
G01 X66.9750 Y38.3500
G01 X66.7750 Y38.1500
G01 X66.5250 Y38.1000
G01 X63.2250
G01 Y36.4500
G01 X63.6250 Y36.0500
G01 Y33.5000
G01 X63.1000 Y32.9750
G01 X62.3500
G01 X61.8250 Y33.5000
G01 Y36.0500
G01 X62.2250 Y36.4500
G01 Y38.6000
G01 X62.2750 Y38.8500
G01 X62.4750 Y39.0250
G01 X62.7250 Y39.1000
G01 X66.0250
G00 Z2.0000


;No. 38: Engraving 38
G00 X69.5750 Y65.2500 Z2.0000
G00 Z0.5000
G01 Z-0.0300 F60
G01 Y5.5750 F120
G01 X69.5250 Y5.3750
G01 X69.4250 Y5.2250
G01 X64.3500 Y0.1250
G01 X64.3000 Y0.1000
G01 X64.2500 Y0.0500
G01 X64.1750
G01 X64.1250 Y0.0000
G01 X4.1750
G01 X4.1250 Y0.0500
G01 X4.0500
G01 X3.9500 Y0.1250
G01 X0.1250 Y3.9500
G01 X0.0500 Y4.0500
G01 Y4.1250
G01 X0.0000 Y4.1750
G01 Y65.4000
G01 X0.0500 Y65.4500
G01 Y65.5000
G01 X0.1000 Y65.5500
G01 X0.1250 Y65.6250
G01 X6.4750 Y71.9750
G01 X6.5500 Y72.0000
G01 X6.6000 Y72.0500
G01 X6.6500
G01 X6.7000 Y72.1000
G01 X62.8500
G01 X62.9000 Y72.0500
G01 X62.9750
G01 X63.0750 Y71.9750
G01 X69.4250 Y65.6250
G01 X69.4500 Y65.5500
G01 X69.5000 Y65.5000
G01 X69.5500 Y65.4000
G01 Y65.3250
G01 X69.5750 Y65.2500
G00 Z2.0000
G00 X0.0000 Y0.0000

M05
